Newaita-dark/actions/24/format-text-blockquote.svg

<?xml version="1.0" encoding="UTF-8"?>
<svg xmlns="http://www.w3.org/2000/svg" xmlns:xlink="http://www.w3.org/1999/xlink" width="24pt" height="24pt" viewBox="0 0 24 24" version="1.1">
<g id="surface1">
<path style=" stroke:none;fill-rule:nonzero;fill:rgb(47.058824%,56.470591%,61.176473%);fill-opacity:1;" d="M 7.449219 17.28125 C 9.371094 17.28125 10.921875 15.734375 10.921875 13.808594 C 10.921875 11.886719 9.371094 10.335938 7.449219 10.335938 L 7.449219 6.140625 C 5.429688 6.894531 3.976562 10.140625 3.976562 12.816406 L 3.976562 13.3125 C 3.976562 13.410156 3.976562 13.507812 3.980469 13.605469 C 3.976562 13.671875 3.976562 13.738281 3.976562 13.808594 C 3.976562 15.734375 5.523438 17.28125 7.449219 17.28125 Z M 7.449219 17.28125 "/>
<path style=" stroke:none;fill-rule:nonzero;fill:rgb(47.058824%,56.470591%,61.176473%);fill-opacity:1;" d="M 16.371094 17.28125 C 18.296875 17.28125 19.84375 15.734375 19.84375 13.808594 C 19.84375 11.886719 18.296875 10.335938 16.371094 10.335938 L 16.371094 6.140625 C 14.355469 6.894531 12.898438 10.140625 12.898438 12.816406 L 12.898438 13.3125 C 12.898438 13.410156 12.902344 13.507812 12.90625 13.605469 C 12.902344 13.671875 12.898438 13.738281 12.898438 13.808594 C 12.898438 15.734375 14.449219 17.28125 16.371094 17.28125 Z M 16.371094 17.28125 "/>
</g>
</svg>

<svg xmlns="http://www.w3.org/2000/svg" width="32" height="32" viewBox="0 0 24 24"><g fill="#78909c"><path d="M7.45 17.281a3.465 3.465 0 0 0 3.472-3.472 3.468 3.468 0 0 0-3.473-3.473V6.14c-2.02.754-3.472 4-3.472 6.675v.496c0 .098 0 .196.003.293-.003.067-.003.133-.003.204a3.463 3.463 0 0 0 3.472 3.472zm0 0M16.371 17.281a3.463 3.463 0 0 0 3.473-3.472 3.465 3.465 0 0 0-3.473-3.473V6.14c-2.016.754-3.473 4-3.473 6.675v.496c0 .098.004.196.008.293a3.465 3.465 0 0 0 3.465 3.676zm0 0"/></g></svg>
